source/img/services/services-nav/box-open.svg

<svg width="33" height="33" viewBox="0 0 33 33" fill="none" xmlns="http://www.w3.org/2000/svg">
<g clip-path="url(#clip0)">
<g filter="url(#filter0_d)">
<path d="M7.43311 13.3503L16.6635 9.31519L26.0226 13.3503L16.6635 17.3003L7.43311 13.3503Z" fill="url(#paint0_radial)"/>
<path fill-rule="evenodd" clip-rule="evenodd" d="M29.2557 16.5986L26.1711 13.4683L29.1376 10.2597L19.6934 6.49097L16.643 9.40276L13.6232 6.49097L4.19727 10.2622L7.15121 13.4482L4.31315 16.5986L6.95573 17.6948V24.2797L16.643 27.4734L26.2642 24.2797V17.7977L29.2557 16.5986ZM7.15121 13.4482L16.643 17.2858L26.1711 13.4683L16.643 9.40276C13.7458 10.656 7.15121 13.4482 7.15121 13.4482Z" fill="url(#paint1_linear)"/>
<path d="M7.15121 13.4482C7.15121 13.4482 13.7458 10.656 16.643 9.40276M7.15121 13.4482L16.643 17.2858M7.15121 13.4482L4.31315 16.5986L6.95574 17.6948M7.15121 13.4482L4.19727 10.2622L13.6232 6.49097L16.643 9.40276M16.643 9.40276L26.1711 13.4683M16.643 9.40276L19.6934 6.49097L29.1376 10.2597L26.1711 13.4683M26.1711 13.4683L16.643 17.2858M26.1711 13.4683L29.2557 16.5986L26.2642 17.7977M16.643 17.2858L19.6749 20.439L26.2642 17.7977M16.643 17.2858L13.5706 20.439L6.95574 17.6948M16.643 17.2858V27.4734M6.95574 17.6948V24.2797L16.643 27.4734M16.643 27.4734L26.2642 24.2797V17.7977" stroke="#0A3D76" stroke-width="0.7" stroke-linejoin="round"/>
</g>
</g>
<defs>
<filter id="filter0_d" x="-0.152832" y="4.14087" width="33.7585" height="29.6824" filterUnits="userSpaceOnUse" color-interpolation-filters="sRGB">
<feFlood flood-opacity="0" result="BackgroundImageFix"/>
<feColorMatrix in="SourceAlpha" type="matrix" values="0 0 0 0 0 0 0 0 0 0 0 0 0 0 0 0 0 0 127 0"/>
<feOffset dy="2"/>
<feGaussianBlur stdDeviation="2"/>
<feColorMatrix type="matrix" values="0 0 0 0 0.854902 0 0 0 0 0.192157 0 0 0 0 0.313726 0 0 0 0.3 0"/>
<feBlend mode="normal" in2="BackgroundImageFix" result="effect1_dropShadow"/>
<feBlend mode="normal" in="SourceGraphic" in2="effect1_dropShadow" result="shape"/>
</filter>
<radialGradient id="paint0_radial" cx="0" cy="0" r="1" gradientUnits="userSpaceOnUse" gradientTransform="translate(16.7278 13.3077) rotate(90) scale(3.32712 7.74562)">
<stop stop-color="#0052AD"/>
<stop offset="1" stop-color="#0A3D76"/>
</radialGradient>
<linearGradient id="paint1_linear" x1="28.4833" y1="16.9822" x2="4.94337" y2="16.3786" gradientUnits="userSpaceOnUse">
<stop stop-color="#A62E41"/>
<stop offset="1" stop-color="#E13152"/>
</linearGradient>
<clipPath id="clip0">
<rect width="32" height="32" fill="white" transform="translate(0.726562 0.982178)"/>
</clipPath>
</defs>
</svg>

<svg width="33" height="33" fill="none" xmlns="http://www.w3.org/2000/svg"><g filter="url(#filter0_d)" clip-path="url(#clip0)"><path d="M7.433 13.35l9.23-4.035 9.36 4.035-9.36 3.95-9.23-3.95z" fill="url(#paint0_radial)"/><path fill-rule="evenodd" clip-rule="evenodd" d="M29.256 16.599l-3.085-3.13 2.967-3.21-9.445-3.768-3.05 2.912-3.02-2.912-9.426 3.771 2.954 3.186-2.838 3.15 2.643 1.097v6.585l9.687 3.193 9.621-3.193v-6.482l2.992-1.2zM7.15 13.449l9.492 3.837 9.528-3.818-9.528-4.065c-2.897 1.253-9.492 4.045-9.492 4.045z" fill="url(#paint1_linear)"/><path d="M7.151 13.448s6.595-2.792 9.492-4.045m-9.492 4.045l9.492 3.838m-9.492-3.838l-2.838 3.15 2.643 1.097m.195-4.247l-2.954-3.186 9.426-3.771 3.02 2.912m0 0l9.528 4.065m-9.528-4.065l3.05-2.912 9.445 3.769-2.967 3.208m0 0l-9.528 3.818m9.528-3.818l3.085 3.13-2.992 1.2m-9.621-.512l3.032 3.153 6.59-2.641m-9.622-.512l-3.072 3.153-6.615-2.744m9.687-.41v10.188m-9.687-9.778v6.585l9.687 3.193m0 0l9.621-3.193v-6.482" stroke="#0A3D76" stroke-width=".7" stroke-linejoin="round"/></g><defs><radialGradient id="paint0_radial" cx="0" cy="0" r="1" gradientUnits="userSpaceOnUse" gradientTransform="matrix(0 3.32712 -7.74562 0 16.728 13.308)"><stop stop-color="#0052AD"/><stop offset="1" stop-color="#0A3D76"/></radialGradient><linearGradient id="paint1_linear" x1="28.483" y1="16.982" x2="4.943" y2="16.379" gradientUnits="userSpaceOnUse"><stop stop-color="#A62E41"/><stop offset="1" stop-color="#E13152"/></linearGradient><clipPath id="clip0"><path fill="#fff" transform="translate(.727 .982)" d="M0 0h32v32H0z"/></clipPath><filter id="filter0_d" x="-.153" y="4.141" width="33.758" height="29.682" filterUnits="userSpaceOnUse" color-interpolation-filters="sRGB"><feFlood flood-opacity="0" result="BackgroundImageFix"/><feColorMatrix in="SourceAlpha" values="0 0 0 0 0 0 0 0 0 0 0 0 0 0 0 0 0 0 127 0"/><feOffset dy="2"/><feGaussianBlur stdDeviation="2"/><feColorMatrix values="0 0 0 0 0.854902 0 0 0 0 0.192157 0 0 0 0 0.313726 0 0 0 0.3 0"/><feBlend in2="BackgroundImageFix" result="effect1_dropShadow"/><feBlend in="SourceGraphic" in2="effect1_dropShadow" result="shape"/></filter></defs></svg>
